img/logo.svg

<svg width="204" height="34" viewBox="0 0 204 34" fill="none" xmlns="http://www.w3.org/2000/svg">
<path fill-rule="evenodd" clip-rule="evenodd" d="M15.4814 33.1199C24.0315 33.1199 30.9627 25.9027 30.9627 16.9999C30.9627 8.09705 24.0315 0.879883 15.4814 0.879883C6.93124 0.879883 0 8.09705 0 16.9999C0 25.9027 6.93124 33.1199 15.4814 33.1199ZM15.481 28.5144C21.5882 28.5144 26.5391 23.3593 26.5391 17.0001C26.5391 10.641 21.5882 5.48586 15.481 5.48586C9.37374 5.48586 4.42285 10.641 4.42285 17.0001C4.42285 23.3593 9.37374 28.5144 15.481 28.5144Z" fill="url(#paint0_linear)"/>
<path d="M52.3495 26.2504L48.1142 19.031H43.6357V26.2504H39.8096V7.22883H48.9325C50.7248 7.11484 52.5015 7.63415 53.975 8.70266C54.5674 9.20817 55.0366 9.85248 55.3441 10.5829C55.6516 11.3133 55.7887 12.1092 55.7443 12.9054C55.7654 14.1545 55.3752 15.3735 54.6385 16.3597C53.902 17.3343 52.8615 18.0104 51.697 18.271L56.629 26.2619L52.3495 26.2504ZM51.8961 13.0666C51.8961 11.2358 50.7903 10.3262 48.5787 10.3262H43.6357V15.9336H48.6339C49.505 15.9972 50.3687 15.7314 51.0667 15.1852C51.347 14.9181 51.5668 14.5894 51.7103 14.223C51.8537 13.8566 51.9172 13.4616 51.8961 13.0666Z" fill="#282B2E"/>
<path d="M60.2998 26.2235V7.21338H64.1259V26.2235H60.2998Z" fill="#282B2E"/>
<path d="M83.8976 21.0504C83.938 21.8806 83.7756 22.7079 83.4256 23.4549C83.0755 24.202 82.5493 24.8444 81.8961 25.3222C80.1434 26.4321 78.1042 26.9509 76.0574 26.8076C74.1341 26.9174 72.2194 26.4669 70.5284 25.5065C69.8631 25.0725 69.2916 24.4994 68.85 23.8236C68.4084 23.1477 68.1063 22.3838 67.9629 21.5801L71.6895 20.9238C71.7768 21.3727 71.9513 21.7984 72.2024 22.1746C72.4534 22.5508 72.7755 22.8696 73.1491 23.1115C74.0781 23.6176 75.1213 23.8524 76.168 23.7908C78.833 23.7908 80.171 22.9503 80.171 21.2577C80.1697 20.7727 79.9964 20.3053 79.6845 19.9451C79.3178 19.5555 78.8719 19.2565 78.3796 19.07C77.3328 18.7023 76.2608 18.4174 75.1728 18.2179C74.2091 18.0004 73.2569 17.7314 72.3198 17.4119C71.8141 17.2277 71.3286 16.9884 70.8712 16.698C70.4467 16.4423 70.0717 16.1065 69.7654 15.7078C69.4482 15.3062 69.2079 14.845 69.0576 14.3491C68.8755 13.7698 68.7895 13.1623 68.8033 12.5529C68.777 11.7814 68.9375 11.0153 69.2698 10.3252C69.6022 9.63512 70.0958 9.04307 70.7053 8.6035C72.332 7.58481 74.2184 7.10682 76.1127 7.2333C77.8842 7.13002 79.6496 7.52789 81.2216 8.38473C81.8151 8.79793 82.3187 9.33636 82.6997 9.96514C83.0807 10.5939 83.3306 11.299 83.4332 12.0348L79.6845 12.5184C79.5535 11.7805 79.1583 11.122 78.5787 10.6761C77.8199 10.2137 76.946 9.99719 76.0685 10.0543C73.7573 10.0543 72.5962 10.8142 72.5962 12.3572C72.5782 12.7976 72.7115 13.2303 72.9722 13.5777C73.274 13.9314 73.6533 14.204 74.078 14.3722C75.036 14.7315 76.0195 15.0126 77.0195 15.2127C78.3004 15.4545 79.5584 15.8129 80.7792 16.2835C81.4392 16.5495 82.0465 16.9398 82.5707 17.435C83.0137 17.8749 83.3607 18.409 83.588 19.0009C83.832 19.6699 83.9521 20.381 83.9419 21.0965L83.8976 21.0504Z" fill="#282B2E"/>
<path d="M87.7686 26.2235V7.21338H91.5947V26.2235H87.7686Z" fill="#282B2E"/>
<path d="M107.33 26.235L99.357 11.5888C99.4968 12.7349 99.578 13.888 99.6002 15.0431V26.258H96.1943V7.21338H100.618L108.679 21.9747C108.53 20.7639 108.449 19.5452 108.436 18.3247V7.21338H111.753V26.235H107.33Z" fill="#282B2E"/>
<path d="M124.039 23.6777C125.017 23.6803 125.99 23.5289 126.925 23.2287C127.733 23.0161 128.488 22.6232 129.137 22.0773V19.429H124.713V16.4928H132.675V23.4935C131.606 24.5898 130.314 25.4203 128.893 25.923C127.327 26.5149 125.672 26.8151 124.006 26.8096C122.754 26.8929 121.499 26.7068 120.32 26.2631C119.14 25.8193 118.061 25.1274 117.15 24.2304C116.31 23.239 115.667 22.0848 115.257 20.8341C114.848 19.5833 114.679 18.2607 114.761 16.9419C114.675 15.635 114.844 14.3235 115.259 13.0867C115.673 11.8498 116.324 10.7132 117.172 9.74545C118.106 8.86359 119.202 8.18683 120.393 7.75556C121.584 7.32429 122.847 7.14737 124.105 7.23534C128.385 7.23534 131.116 8.8934 132.277 12.1865L128.761 13.3379C128.413 12.4217 127.783 11.652 126.969 11.1502C126.095 10.6417 125.106 10.3871 124.105 10.4133C123.343 10.3598 122.58 10.4841 121.87 10.7769C121.16 11.0697 120.522 11.5237 120.003 12.1059C118.995 13.5042 118.5 15.2318 118.609 16.9764C118.497 18.7678 119.008 20.5413 120.047 21.9736C120.555 22.5654 121.185 23.0302 121.889 23.3332C122.594 23.6363 123.355 23.7698 124.116 23.7238L124.039 23.6777Z" fill="#282B2E"/>
<path d="M150.899 20.9929C150.941 21.822 150.78 22.6486 150.432 23.3955C150.084 24.1425 149.56 24.7855 148.909 25.2647C147.156 26.3745 145.117 26.8933 143.07 26.75C141.147 26.8568 139.233 26.4065 137.541 25.4489C136.879 25.0112 136.31 24.4371 135.868 23.7619C135.427 23.0867 135.123 22.3246 134.976 21.5225L138.669 20.8892C138.762 21.3373 138.941 21.7615 139.193 22.1371C139.446 22.5127 139.767 22.8322 140.14 23.077C141.068 23.5847 142.112 23.8196 143.159 23.7563C145.824 23.7563 147.162 22.9158 147.162 21.2232C147.176 20.7325 147.01 20.2547 146.697 19.8875C146.333 19.5006 145.891 19.2018 145.403 19.0124C144.357 18.6447 143.285 18.3599 142.197 18.1604C141.252 17.9629 140.318 17.713 139.399 17.4119C138.893 17.2277 138.408 16.9884 137.95 16.698C137.526 16.4413 137.152 16.1056 136.844 15.7078C136.531 15.3034 136.292 14.843 136.137 14.3491C135.96 13.7685 135.874 13.162 135.882 12.5529C135.846 11.7835 135.999 11.0173 136.326 10.3263C136.653 9.63536 137.143 9.04246 137.751 8.6035C139.378 7.58481 141.264 7.10682 143.159 7.2333C144.927 7.12865 146.689 7.52666 148.256 8.38473C148.851 8.79686 149.355 9.335 149.736 9.96397C150.117 10.5929 150.367 11.2986 150.468 12.0348L146.764 12.5644C146.61 11.8212 146.196 11.1642 145.602 10.7221C144.844 10.2597 143.97 10.0432 143.092 10.1004C140.781 10.1004 139.62 10.8603 139.62 12.4032C139.603 12.8416 139.732 13.2726 139.985 13.6237C140.289 13.9748 140.668 14.2469 141.091 14.4182C142.05 14.7743 143.033 15.0553 144.032 15.2588C145.317 15.501 146.578 15.8593 147.803 16.3296C148.463 16.5956 149.07 16.9859 149.594 17.481C150.034 17.9241 150.38 18.4573 150.612 19.047C150.847 19.7182 150.963 20.4282 150.955 21.1426L150.899 20.9929Z" fill="#282B2E"/>
<path d="M161.957 10.2877V26.2235H158.131V10.2877H152.237V7.21338H167.862V10.2877H161.957Z" fill="#282B2E"/>
<path d="M180.856 26.235L179.208 21.3644H172.252L170.627 26.235H166.801L173.436 7.21338H177.936L184.571 26.235H180.856ZM175.758 10.115L175.68 10.4028C175.592 10.7367 175.481 11.1052 175.371 11.5543C175.26 12.0033 174.497 14.2371 173.159 18.3822H178.401L176.609 12.9129L176.045 11.0822L175.78 10.1495L175.758 10.115Z" fill="#282B2E"/>
<path d="M199.665 26.2507L195.43 19.0312H191.007V26.2507H187.181V7.22907H196.293C198.081 7.11407 199.855 7.63359 201.324 8.7029C201.92 9.20601 202.392 9.84957 202.702 10.5804C203.011 11.3112 203.149 12.1082 203.104 12.9056C203.13 14.1555 202.739 15.376 201.999 16.3599C201.266 17.339 200.224 18.0162 199.057 18.2713L204 26.2622L199.665 26.2507ZM199.212 13.0668C199.212 11.236 198.106 10.3264 195.839 10.3264H190.951V15.9339H195.95C196.817 15.9978 197.678 15.7318 198.371 15.1854C198.654 14.9194 198.876 14.5912 199.021 14.2248C199.166 13.8583 199.232 13.4628 199.212 13.0668Z" fill="#282B2E"/>
<defs>
<linearGradient id="paint0_linear" x1="4.97615" y1="30.2413" x2="34.7926" y2="3.80882" gradientUnits="userSpaceOnUse">
<stop stop-color="#62348A"/>
<stop offset="0.109375" stop-color="#A1217D"/>
<stop offset="0.235224" stop-color="#EB3E2D"/>
<stop offset="0.460463" stop-color="#FFE400"/>
<stop offset="0.662141" stop-color="#3DB138"/>
<stop offset="0.894544" stop-color="#009FCA"/>
<stop offset="1" stop-color="#185AA3"/>
</linearGradient>
</defs>
</svg>

<svg width="204" height="34" fill="none" xmlns="http://www.w3.org/2000/svg"><path fill-rule="evenodd" clip-rule="evenodd" d="M15.481 33.12c8.55 0 15.482-7.217 15.482-16.12C30.963 8.097 24.032.88 15.48.88 6.931.88 0 8.097 0 17c0 8.903 6.931 16.12 15.481 16.12zm0-4.606c6.107 0 11.058-5.155 11.058-11.514 0-6.359-4.95-11.514-11.058-11.514C9.374 5.486 4.423 10.64 4.423 17c0 6.36 4.95 11.514 11.058 11.514z" fill="url(#paint0_linear)"/><path d="M52.35 26.25l-4.236-7.219h-4.478v7.22H39.81V7.228h9.122a7.743 7.743 0 015.043 1.474 5.04 5.04 0 011.37 1.88 5.24 5.24 0 01.4 2.322 5.619 5.619 0 01-1.106 3.455 5.086 5.086 0 01-2.942 1.911l4.932 7.99-4.28-.01zm-.454-13.183c0-1.831-1.106-2.74-3.317-2.74h-4.943v5.607h4.998a3.526 3.526 0 002.433-.749c.28-.267.5-.596.643-.962a2.77 2.77 0 00.186-1.156zM60.3 26.224V7.213h3.826v19.01H60.3zm23.598-5.174a5.09 5.09 0 01-.472 2.405 4.87 4.87 0 01-1.53 1.867 9.642 9.642 0 01-5.839 1.486 10.021 10.021 0 01-5.529-1.302 5.783 5.783 0 01-1.678-1.682 6.043 6.043 0 01-.887-2.244l3.727-.656c.087.449.261.874.512 1.25.251.377.573.696.947.938.93.506 1.972.74 3.019.679 2.665 0 4.003-.84 4.003-2.533a2.015 2.015 0 00-.487-1.313 3.493 3.493 0 00-1.304-.875 21.229 21.229 0 00-3.207-.852 27.819 27.819 0 01-2.853-.806 7.477 7.477 0 01-1.449-.714 3.996 3.996 0 01-1.106-.99 4.12 4.12 0 01-.707-1.359 5.572 5.572 0 01-.255-1.796 4.765 4.765 0 01.467-2.228 4.557 4.557 0 011.435-1.721 9.042 9.042 0 015.408-1.37 9.508 9.508 0 015.109 1.15A5.217 5.217 0 0182.7 9.966c.38.629.63 1.334.733 2.07l-3.749.483a2.977 2.977 0 00-1.105-1.842 4.284 4.284 0 00-2.51-.622c-2.312 0-3.473.76-3.473 2.303-.018.44.115.873.376 1.22.302.354.681.627 1.106.795.958.36 1.941.64 2.941.84 1.281.242 2.54.6 3.76 1.072.66.265 1.267.656 1.792 1.151.443.44.79.974 1.017 1.566.244.669.364 1.38.354 2.095l-.044-.046zm3.871 5.174V7.213h3.826v19.01h-3.826zm19.561.011l-7.973-14.646c.14 1.146.221 2.299.243 3.454v11.215h-3.406V7.213h4.424l8.061 14.762a32.74 32.74 0 01-.243-3.65V7.213h3.317v19.022h-4.423zm16.709-2.557a9.356 9.356 0 002.886-.45 5.686 5.686 0 002.212-1.15v-2.649h-4.424v-2.936h7.962v7a9.895 9.895 0 01-3.782 2.43 13.69 13.69 0 01-4.887.887 8.8 8.8 0 01-3.686-.547 9.073 9.073 0 01-3.17-2.033 10.136 10.136 0 01-1.893-3.396 10.446 10.446 0 01-.496-3.892 10.052 10.052 0 01.498-3.855 9.777 9.777 0 011.913-3.342 9.314 9.314 0 013.221-1.99 9.044 9.044 0 013.712-.52c4.28 0 7.011 1.658 8.172 4.952l-3.516 1.15a4.395 4.395 0 00-1.792-2.187 5.408 5.408 0 00-2.864-.737 4.947 4.947 0 00-2.235.364 5.117 5.117 0 00-1.867 1.329 7.536 7.536 0 00-1.394 4.87 7.703 7.703 0 001.438 4.998 5.075 5.075 0 001.842 1.36 4.886 4.886 0 002.227.39l-.077-.046zm26.86-2.685a5.085 5.085 0 01-.467 2.402 4.872 4.872 0 01-1.523 1.87 9.644 9.644 0 01-5.839 1.485 10.08 10.08 0 01-5.529-1.301 5.878 5.878 0 01-1.673-1.687 6.111 6.111 0 01-.892-2.24l3.693-.633c.093.448.272.873.524 1.248.253.376.574.695.947.94a5.583 5.583 0 003.019.68c2.665 0 4.003-.841 4.003-2.534a1.974 1.974 0 00-.465-1.335 3.534 3.534 0 00-1.294-.876 21.193 21.193 0 00-3.206-.852 26.203 26.203 0 01-2.798-.748 7.489 7.489 0 01-1.449-.714 4.06 4.06 0 01-1.106-.99 4.343 4.343 0 01-.707-1.359 5.897 5.897 0 01-.255-1.796 4.697 4.697 0 01.444-2.227 4.489 4.489 0 011.425-1.723 9.043 9.043 0 015.408-1.37 9.44 9.44 0 015.097 1.152c.595.412 1.099.95 1.48 1.579a5.42 5.42 0 01.732 2.07l-3.704.53a3.068 3.068 0 00-1.162-1.842 4.28 4.28 0 00-2.51-.622c-2.311 0-3.472.76-3.472 2.303-.017.439.112.87.365 1.22a2.91 2.91 0 001.106.795c.959.356 1.942.637 2.941.84 1.285.243 2.546.601 3.771 1.072.66.266 1.267.656 1.791 1.151.44.443.786.976 1.018 1.566.235.671.351 1.381.343 2.096l-.056-.15zm11.058-10.705v15.936h-3.826V10.288h-5.894V7.213h15.625v3.075h-5.905zm18.899 15.947l-1.648-4.87h-6.956l-1.625 4.87h-3.826l6.635-19.022h4.5l6.635 19.022h-3.715zm-5.098-16.12l-.078.288c-.088.334-.199.702-.309 1.151-.111.45-.874 2.683-2.212 6.828h5.242l-1.792-5.47-.564-1.83-.265-.933-.022-.034zm23.907 16.135l-4.235-7.219h-4.423v7.22h-3.826V7.229h9.112a7.7 7.7 0 015.031 1.474 5.018 5.018 0 011.378 1.877 5.22 5.22 0 01.402 2.326 5.56 5.56 0 01-1.105 3.454 5.022 5.022 0 01-2.942 1.911L204 26.262l-4.335-.011zm-.453-13.183c0-1.831-1.106-2.74-3.373-2.74h-4.888v5.607h4.999a3.493 3.493 0 002.421-.749c.283-.266.505-.594.65-.96a2.77 2.77 0 00.191-1.158z" fill="#282B2E"/><defs><linearGradient id="paint0_linear" x1="4.976" y1="30.241" x2="34.793" y2="3.809" gradientUnits="userSpaceOnUse"><stop stop-color="#62348A"/><stop offset=".109" stop-color="#A1217D"/><stop offset=".235" stop-color="#EB3E2D"/><stop offset=".46" stop-color="#FFE400"/><stop offset=".662" stop-color="#3DB138"/><stop offset=".895" stop-color="#009FCA"/><stop offset="1" stop-color="#185AA3"/></linearGradient></defs></svg>
